!! 00000] TT[WS
!!!OTL: Fanshen le
!!!ARE: Asia, China, Shanxi Dingxiang
!! Ethnic Group: Han
!! WI, 317 (2)
!!!SCT: J0385
!!!YEM: Copyright 1995, estate of Helmut Schaffrath.
**kern
*ICvox
*Ivox
*M2/4
*k[b-e-]
*B-:
{8dd
16dd
16ff
8dd
16dd
16cc
=1
8b-
16b-
16cc
8b-
8b-
=2
8g
8f
8d
8f
=3
2g}
=4
{8b-
16b-
16g
8b-
8cc
=5
8dd
16dd
16ff
8dd
16dd
16cc
=6
8b-
8cc
8dd
16dd
16cc
=7
8dd
4.b-}
=8
{8g
16g
16f
8d
8f
=9
2g}
=10
{8f
16f
16g
8b-
16b-
16g
=11
8f
16f
16b-
8g
8f
=12
8dd
8ff
8cc
8dd
=13
8f
16f
16g
8d
8c
=14
2b-}
==
!!!AGN: Xiaodiao. Xinminge, Xuanchuan
!! Neue Text. Politische Liede
!!!ONB: ESAC (Essen Associative Code) Database: CHINA
!!!AMT: simple duple
!!!AIN: vox
!!!EED: Helmut Schaffrath
!!!EEV: 1.0
*-
